src/assets/logo.svg

<svg width="46" height="17" viewBox="0 0 46 17" fill="none" xmlns="http://www.w3.org/2000/svg">
<g clip-path="url(#clip0)">
<path d="M7.71176 1.24609H2.20497C0.739561 1.24609 0 2.10244 0 3.79864V12.8767C0 13.0991 0.0991996 13.236 0.312922 13.236H1.97754C2.17675 13.236 2.30498 13.0991 2.30498 12.8767V12.532C2.30498 11.6912 2.59935 11.233 3.33085 11.1446H7.71176C9.31912 11.1446 10.045 10.3057 10.045 8.47264V3.91806C10.045 2.08497 9.31912 1.24609 7.71176 1.24609ZM7.74241 7.70173C7.74241 8.69595 7.5553 8.90081 6.57298 8.90081H4.23978C3.25826 8.90081 2.63161 9.295 2.30417 10.0659V4.46663C2.30417 3.69572 2.46063 3.48989 3.24294 3.48989H6.57298C7.5553 3.48989 7.74241 3.69572 7.74241 4.68897V7.70173Z" fill="white"/>
<path d="M15.3234 6.26486C14.0572 6.26486 13.5161 7.03577 13.5161 8.33777V12.9108C13.5161 13.1166 13.4306 13.236 13.2314 13.236H11.7232C11.524 13.236 11.4248 13.1166 11.4248 12.9108V4.55216C11.4248 4.34632 11.524 4.22593 11.7232 4.22593H12.9894C13.1749 4.22593 13.2741 4.34632 13.2741 4.55216V5.90076C13.5161 4.78809 14.2137 4.22205 15.4517 4.22205H15.9638C16.1485 4.22205 16.2477 4.34244 16.2477 4.54827V5.9396C16.2477 6.16194 16.1485 6.26486 15.9638 6.26486H15.3234Z" fill="white"/>
<path d="M25.1404 10.7863C25.1404 12.4825 24.5145 13.236 23.0209 13.236H19.3215C17.8415 13.236 17.2012 12.4825 17.2012 10.7863V6.67741C17.2012 4.98219 17.8415 4.22778 19.3215 4.22778H23.0209C24.5145 4.22778 25.1404 4.98219 25.1404 6.67741V10.7863ZM23.0491 7.32695C23.0491 6.43565 22.9072 6.26477 22.0249 6.26477H20.3312C19.4352 6.26477 19.2924 6.43565 19.2924 7.32695V10.1358C19.2924 11.0261 19.4352 11.198 20.3312 11.198H22.0249C22.9072 11.198 23.0491 11.0261 23.0491 10.1358V7.32695Z" fill="white"/>
<path d="M27.2461 6.26481H26.534C26.3485 6.26481 26.2493 6.1619 26.2493 5.93955V4.55211C26.2493 4.34628 26.3485 4.22588 26.534 4.22588H27.2453V3.11321C27.2461 1.41702 27.9857 0.560669 29.4511 0.560669H31.2012C31.4004 0.560669 31.4859 0.681063 31.4859 0.885926V2.27337C31.4859 2.49668 31.4004 2.59863 31.2012 2.59863H30.2769C29.4938 2.59863 29.3373 2.80446 29.3373 3.57537V4.22588H31.2012C31.4004 4.22588 31.4859 4.34628 31.4859 4.55211V5.93955C31.4859 6.1619 31.4004 6.26481 31.2012 6.26481H29.3373V12.9107C29.3373 13.1166 29.2381 13.236 29.0389 13.236H27.5308C27.3316 13.236 27.2461 13.1166 27.2461 12.9107V6.26481Z" fill="white"/>
<path d="M33.0511 6.26481H32.3405C32.1558 6.26481 32.0566 6.1619 32.0566 5.93955V4.55211C32.0566 4.34628 32.1558 4.22588 32.3405 4.22588H33.0527V3.11321C33.0511 1.41702 33.7922 0.560669 35.256 0.560669H37.0061C37.2053 0.560669 37.2908 0.681063 37.2908 0.885926V2.27337C37.2908 2.49668 37.2053 2.59863 37.0061 2.59863H36.0811C35.2988 2.59863 35.1423 2.80446 35.1423 3.57537V4.22588H37.0061C37.2053 4.22588 37.2908 4.34628 37.2908 4.55211V5.93955C37.2908 6.1619 37.2053 6.26481 37.0061 6.26481H35.1423V12.9107C35.1423 13.1166 35.0423 13.236 34.8431 13.236H33.3349C33.1357 13.236 33.0511 13.1166 33.0511 12.9107V6.26481Z" fill="white"/>
<path d="M43.6502 16.7303H40.5484C39.1547 16.7303 38.5571 16.0798 38.5571 14.469V14.2981C38.553 14.2522 38.5575 14.2057 38.5703 14.1621C38.5832 14.1185 38.604 14.079 38.6313 14.0464C38.6585 14.0139 38.6916 13.9891 38.7279 13.974C38.7642 13.959 38.8028 13.9539 38.841 13.9593H40.2927C40.4919 13.9593 40.5911 14.0797 40.5911 14.302V14.3875C40.5911 14.7302 40.7484 14.8671 41.0613 14.8671H42.8541C43.7074 14.8671 43.9211 14.6108 43.9211 13.737V11.0349C43.5937 11.8058 42.9679 12.2 41.9855 12.2H40.5338C39.0539 12.2 38.399 11.4466 38.399 9.75036V4.55207C38.3971 4.50718 38.4032 4.46232 38.4171 4.42057C38.4309 4.37881 38.452 4.34115 38.4791 4.31016C38.5061 4.27917 38.5384 4.25559 38.5737 4.24104C38.6091 4.22648 38.6466 4.2213 38.6837 4.22584H40.2064C40.3911 4.22584 40.4911 4.34623 40.4911 4.55207V9.1047C40.4911 9.99503 40.6476 10.1669 41.5299 10.1669H42.6114C43.5502 10.1669 43.9203 9.70376 43.9203 8.76197V4.55207C43.9203 4.34623 44.0195 4.22584 44.205 4.22584H45.7285C45.7649 4.2216 45.8017 4.22714 45.8361 4.24205C45.8706 4.25696 45.9018 4.28088 45.9277 4.31208C45.9535 4.34327 45.9733 4.38098 45.9855 4.42247C45.9978 4.46397 46.0023 4.50823 45.9987 4.55207V14.0069C45.9979 15.804 45.2011 16.7303 43.6502 16.7303Z" fill="white"/>
</g>
<defs>
<clipPath id="clip0">
<rect width="46" height="16.205" fill="white" transform="translate(0 0.560669)"/>
</clipPath>
</defs>
</svg>

<svg width="46" height="17" fill="none" xmlns="http://www.w3.org/2000/svg"><g clip-path="url(#a)" fill="#fff"><path d="M7.712 1.246H2.205C.74 1.246 0 2.102 0 3.8v9.078c0 .222.1.359.313.359h1.665c.199 0 .327-.137.327-.36v-.344c0-.84.294-1.299 1.026-1.387h4.38c1.608 0 2.334-.84 2.334-2.672V3.918c0-1.833-.726-2.672-2.333-2.672Zm.03 6.456c0 .994-.187 1.199-1.169 1.199H4.24c-.982 0-1.608.394-1.936 1.165v-5.6c0-.77.157-.976.939-.976h3.33c.982 0 1.17.206 1.17 1.199v3.013ZM15.323 6.265c-1.266 0-1.807.77-1.807 2.073v4.573c0 .206-.085.325-.285.325h-1.508c-.199 0-.298-.12-.298-.325V4.552c0-.206.099-.326.298-.326h1.266c.186 0 .285.12.285.326v1.349c.242-1.113.94-1.679 2.178-1.679h.512c.184 0 .284.12.284.326V5.94c0 .222-.1.325-.284.325h-.64ZM25.14 10.786c0 1.697-.625 2.45-2.12 2.45h-3.698c-1.48 0-2.12-.754-2.12-2.45V6.677c0-1.695.64-2.45 2.12-2.45h3.699c1.494 0 2.12.755 2.12 2.45v4.11Zm-2.09-3.459c0-.891-.143-1.062-1.025-1.062H20.33c-.896 0-1.039.17-1.039 1.062v2.809c0 .89.143 1.062 1.04 1.062h1.693c.882 0 1.024-.172 1.024-1.062V7.327ZM27.246 6.265h-.712c-.185 0-.285-.103-.285-.325V4.552c0-.206.1-.326.285-.326h.711V3.113c.001-1.696.74-2.552 2.206-2.552h1.75c.2 0 .285.12.285.325v1.387c0 .224-.086.326-.285.326h-.924c-.783 0-.94.205-.94.976v.65h1.864c.2 0 .285.121.285.327V5.94c0 .222-.086.325-.285.325h-1.864v6.646c0 .206-.099.325-.298.325H27.53c-.2 0-.285-.12-.285-.325V6.265ZM33.051 6.265h-.71c-.185 0-.284-.103-.284-.325V4.552c0-.206.099-.326.283-.326h.713V3.113c-.002-1.696.74-2.552 2.203-2.552h1.75c.2 0 .285.12.285.325v1.387c0 .224-.086.326-.285.326h-.925c-.782 0-.939.205-.939.976v.65h1.864c.2 0 .285.121.285.327V5.94c0 .222-.086.325-.285.325h-1.864v6.646c0 .206-.1.325-.299.325h-1.508c-.2 0-.284-.12-.284-.325V6.265ZM43.65 16.73h-3.102c-1.393 0-1.99-.65-1.99-2.261v-.17a.368.368 0 0 1 .012-.137.322.322 0 0 1 .061-.116.254.254 0 0 1 .097-.072.216.216 0 0 1 .113-.015h1.452c.199 0 .298.12.298.343v.085c0 .343.157.48.47.48h1.793c.853 0 1.067-.256 1.067-1.13v-2.702c-.327.77-.953 1.165-1.935 1.165h-1.452c-1.48 0-2.135-.753-2.135-2.45V4.552a.368.368 0 0 1 .018-.131.32.32 0 0 1 .062-.11.255.255 0 0 1 .095-.07.218.218 0 0 1 .11-.015h1.522c.185 0 .285.12.285.326v4.553c0 .89.157 1.062 1.039 1.062h1.081c.94 0 1.31-.463 1.31-1.405v-4.21c0-.206.099-.326.284-.326h1.523a.209.209 0 0 1 .108.016.247.247 0 0 1 .092.07.31.31 0 0 1 .058.11.355.355 0 0 1 .013.13v9.455c-.001 1.797-.798 2.723-2.349 2.723Z"/></g><defs><clipPath id="a"><path fill="#fff" transform="translate(0 .56)" d="M0 0h46v16.205H0z"/></clipPath></defs></svg>
